images/流程图/u80_seg2.svg

<svg xmlns="http://www.w3.org/2000/svg" width="10" height="34" preserveAspectRatio="xMidYMin meet" viewBox="171 1174 8 34"><defs><mask id="a" fill="#fff"><path fill-rule="evenodd" d="M325 1165h34v28h-34Zm-160 0h348v53H165Z"/></mask></defs><path fill="none" stroke="#d9001b" stroke-width="2" d="M510 1208v-24a5 5 0 0 0-5-5H180a5 5 0 0 0-5 5v18" mask="url(#a)"/><path fill="#d9001b" d="m167.4 1201 7.6 7 7.6-7z" mask="url(#a)"/></svg>

﻿<?xml version="1.0" encoding="utf-8"?>
<svg version="1.1" xmlns:xlink="http://www.w3.org/1999/xlink" width="10px" height="34px" preserveAspectRatio="xMidYMin meet" viewBox="171 1174  8 34" xmlns="http://www.w3.org/2000/svg">
  <defs>
    <mask fill="white" id="clip24">
      <path d="M 325 1165  L 359 1165  L 359 1193  L 325 1193  Z M 165 1165  L 513 1165  L 513 1218  L 165 1218  Z " fill-rule="evenodd" />
    </mask>
  </defs>
  <path d="M 510 1208  L 510 1184  A 5 5 0 0 0 505 1179 L 180 1179  A 5 5 0 0 0 175 1184 L 175 1202  " stroke-width="2" stroke="#d9001b" fill="none" mask="url(#clip24)" />
  <path d="M 167.4 1201  L 175 1208  L 182.6 1201  L 167.4 1201  Z " fill-rule="nonzero" fill="#d9001b" stroke="none" mask="url(#clip24)" />
</svg>
